!!!OTL: Yao xue la zhu yi tiao xin
!!!ARE: Asia, China,ÿSichuan, Wushan
!! II, 252
!!!SCT: C1505
!!!YEM: Copyright 1995, estate of Helmut Schaffrath.
**kern
*ICvox
*Ivox
!! Mixed meters:  2/4; 3/4; 4/4
*M4/4
*k[b-]
*F:
{8dd
8cc
8dd
8cc
4.ff
8dd
=1
8dd
8ff
16dd
16ff
16dd
16cc
8a
8cc
8a
8cc}
=2
{8dd
8ff
16dd
16ff
16cc
16dd
4a
8.dd
16ff
=3
*M2/4
8.a
16g
4g
=4
*M3/4
8a
8cc
8g
8g
4a}
=5
*M4/4
{8.dd
16cc
8dd
8ff
8.dd
16ff
16.dd
32ff
8cc
=6
*M3/4
8a
8cc
8g
8g
8.a}
{16cc
=7
8dd
8cc
8ff
4dd
8cc
=8
*M4/4
8cc
4a
8cc
8.dd
16ff
16dd
16ff
16dd
16cc
=9
4a
8.dd
16ff
4.f}
{8d
=10
8cc
8a
8dd
8g
4a
8a
16g
16f
=11
8f
8d
8g
8a
2d}
==
!!!AGN: Xiaodiao, Fengsuge, Zimeige, Pipa yun. Hunjia yishi shang chang
!!!AMT: irregular
!!!AIN: vox
!!!EED: Helmut Schaffrath
!!!EEV: 1.0
*-
